X: 1585
T: Jenny Lind
C:Anton Wallerstein, C1850
B: australian traditional tunes wiki
B: kameruka bush dance
M:2/4
L:1/8
R: Polka
Q: 1/4=100
K:G
V:1 
"G"Bd "D7"ce|"G"db b/a/b/g/|"D7"ca a/g/a/g/|"G" Bd gd/c/|Bd "D7"^ce|"G"db b/a/b/g/|"D7"ca a>f|"G"gg gz|
"G"gf "D7"e/d/e|"G"dB D/G/B/d/|"D7"cA D/F/A/c/|"G"BG G/F/G|gf "D7"e/d/e|"G"dB D/G/B/d/|"D7"cA D(3D/E/F/|"G"GG Gz||
% abcbook-tune_id 6342d53a6b3f545d63262af2


% abcbook-boost 0
% abcbook-tablature 
% abcbook-transpose -5
% abcbook-lastupdated 1665396597695
% abcbook-soundfonts 
% abcbook-repeats 3
%%MIDI transpose           -5
% NFF Book 2017

